X:1
T:J. S. Bach
T:BWV 941 Little Prelude in E minor
%%score { ( 1 2 ) | ( 3 4 ) }
L:1/8
Q:1/4=184
M:3/4
K:G
V:1 treble nm="Harp"
V:2 treble 
V:3 bass 
V:4 bass 
V:1
"^Presto" z E GB eB | cA FA ^DB | G2 E2 e2- | e2 ^d2 f2- | f2 e2 f2- | f2 e2 a2- | a2 g2 =f2- | %7
 f2 e4 | d6- | de A3 G | Gd BG g2 | z e ^ce Ag | f2 z f dB | ^g2 e2 g2 | ae cA a2 | z f ^df Ba | %16
 ge ce Ag | fd Bd Gf | e2 ^de f2- | fB ed cB | (3ABc F3 E | !fermata!E6 |] %22
V:2
[I:staff +1] G,6 | A,4 F,2 | B,[I:staff -1] z z2 G2 | F4 A2- | A2 G2 B2- | B2 A2 c2 | B6- | %7
 B2 cB c2- | c2 BA GF | G2 F4 | x6 | x6 | x6 | x6 | x6 | x6 | x6 | x6 | z4 A2- | A2 G3 G | %20
 FE E2 ^D2 | z B, !fermata!^G,4 |] %22
V:3
 E,6 | E,6 | E,E, G,B, EB, | CA, F,A, ^D,B, | G,E B,G, E,G, | A,B, CA, F,D, | G,G,, B,,D, G,D, | %7
 E,G, C,E, A,,C, | F,,D,, G,,B,, E,,G,, | C,,C, D,C, D,D,, | G,,2 z B, G,E, | ^C2 A,2 C2 | %12
 DA, F,D, D2 | z B, ^G,B, E,D | C2 z C A,F, | ^D2 B,2 D2 | E2 z A, CE | D2 z G, B,D | %18
 CA, F,A, ^D,F, | G,,E,, G,,B,, E,B,, | C,A,, B,,A,, B,,2 | z2 z B,, !fermata!E,2 |] %22
V:4
 x6 | x6 | x6 | x6 | x6 | x6 | x6 | x6 | x6 | x6 | x6 | x6 | x6 | x6 | x6 | x6 | x6 | x6 | x6 | %19
 x6 | x6 | !fermata!E,,6 |] %22

